img/card6.svg

<svg width="61" height="91" viewBox="0 0 61 91" fill="none" xmlns="http://www.w3.org/2000/svg">
<rect x="0.392578" y="0.0498047" width="60.057" height="90.0855" rx="4.61977" fill="white"/>
<mask id="mask0_1592_9465" style="mask-type:alpha" maskUnits="userSpaceOnUse" x="1" y="1" width="58" height="87">
<path d="M11.2824 2.3597H53.5203C55.7528 2.3597 57.5626 4.1695 57.5626 6.402L57.5625 70.5625C57.5625 71.8044 56.5557 72.8112 55.3138 72.8112C53.6623 72.8112 52.249 73.9969 51.962 75.6233L50.8353 82.008C50.6771 82.9045 51.0881 83.8058 51.8687 84.2741C52.7655 84.8122 52.3997 86.1884 51.3541 86.2102L6.4077 87.1466C4.09103 87.1949 2.20803 85.2897 2.28334 82.9738L4.3241 20.222C4.37573 18.6343 5.67773 17.374 7.26623 17.374C9.52984 17.374 11.3649 15.5389 11.3649 13.2753L11.3649 8.21691C11.3649 7.25616 10.9125 6.35148 10.1439 5.77503C8.68518 4.68097 9.45894 2.3597 11.2824 2.3597Z" fill="#C4C4C4" stroke="black" stroke-width="1.15494"/>
</mask>
<g mask="url(#mask0_1592_9465)">
<rect x="6.1678" y="5.24715" width="49.6625" height="79.691" rx="4.0423" stroke="black" stroke-width="1.15494"/>
</g>
<path d="M16.6963 19.6839H11.8157C13.7571 18.5462 14.1011 17.6245 14.256 15.8054L11.0023 17.3568C9.22266 16.1671 9.12927 15.4889 11.0023 14.254L14.256 15.8054L12.629 11.9269C13.6595 9.91289 14.6625 9.98775 15.8828 11.9269L14.256 15.8054L17.9165 14.254C19.3434 15.4658 19.0275 16.145 17.9165 17.3568L14.256 15.8054C14.5519 17.6248 14.9741 18.5255 16.6963 19.6839Z" fill="black"/>
<path d="M14.256 15.8054C14.1011 17.6245 13.7571 18.5462 11.8157 19.6839H16.6963C14.9741 18.5255 14.5519 17.6248 14.256 15.8054ZM14.256 15.8054L11.0023 17.3568C9.22266 16.1671 9.12927 15.4889 11.0023 14.254L14.256 15.8054ZM14.256 15.8054L15.8828 11.9269C14.6625 9.98775 13.6595 9.91289 12.629 11.9269L14.256 15.8054ZM14.256 15.8054L17.9165 14.254C19.3434 15.4658 19.0275 16.145 17.9165 17.3568L14.256 15.8054Z" stroke="black" stroke-width="1.15494"/>
<path d="M21.5877 30.0783H17.3172C19.0159 29.0828 19.3169 28.2763 19.4525 26.6846L16.6055 28.042C15.0483 27.001 14.9666 26.4076 16.6055 25.3271L19.4525 26.6846L18.0289 23.2909C18.9305 21.5286 19.8081 21.5941 20.8759 23.2909L19.4525 26.6846L22.6554 25.3271C23.9039 26.3874 23.6275 26.9817 22.6554 28.042L19.4525 26.6846C19.7114 28.2766 20.0808 29.0647 21.5877 30.0783Z" fill="black"/>
<path d="M19.4525 26.6846C19.3169 28.2763 19.0159 29.0828 17.3172 30.0783H21.5877C20.0808 29.0647 19.7114 28.2766 19.4525 26.6846ZM19.4525 26.6846L16.6055 28.042C15.0483 27.001 14.9666 26.4076 16.6055 25.3271L19.4525 26.6846ZM19.4525 26.6846L20.8759 23.2909C19.8081 21.5941 18.9305 21.5286 18.0289 23.2909L19.4525 26.6846ZM19.4525 26.6846L22.6554 25.3271C23.9039 26.3874 23.6275 26.9817 22.6554 28.042L19.4525 26.6846Z" stroke="black" stroke-width="1.15494"/>
<path d="M40.4093 30.0783H44.6799C42.9811 29.0828 42.6801 28.2763 42.5446 26.6846L45.3916 28.042C46.9488 27.001 47.0305 26.4076 45.3916 25.3271L42.5446 26.6846L43.9682 23.2909C43.0665 21.5286 42.1889 21.5941 41.1212 23.2909L42.5446 26.6846L39.3417 25.3271C38.0932 26.3874 38.3695 26.9817 39.3417 28.042L42.5446 26.6846C42.2857 28.2766 41.9163 29.0647 40.4093 30.0783Z" fill="black"/>
<path d="M42.5446 26.6846C42.6801 28.2763 42.9811 29.0828 44.6799 30.0783H40.4093C41.9163 29.0647 42.2857 28.2766 42.5446 26.6846ZM42.5446 26.6846L45.3916 28.042C46.9488 27.001 47.0305 26.4076 45.3916 25.3271L42.5446 26.6846ZM42.5446 26.6846L41.1212 23.2909C42.1889 21.5941 43.0665 21.5286 43.9682 23.2909L42.5446 26.6846ZM42.5446 26.6846L39.3417 25.3271C38.0932 26.3874 38.3695 26.9817 39.3417 28.042L42.5446 26.6846Z" stroke="black" stroke-width="1.15494"/>
<path d="M21.5877 47.4025H17.3172C19.0159 46.407 19.3169 45.6005 19.4525 44.0088L16.6055 45.3663C15.0483 44.3253 14.9666 43.7318 16.6055 42.6513L19.4525 44.0088L18.0289 40.6152C18.9305 38.8529 19.8081 38.9184 20.8759 40.6152L19.4525 44.0088L22.6554 42.6513C23.9039 43.7117 23.6275 44.3059 22.6554 45.3663L19.4525 44.0088C19.7114 45.6008 20.0808 46.3889 21.5877 47.4025Z" fill="black"/>
<path d="M19.4525 44.0088C19.3169 45.6005 19.0159 46.407 17.3172 47.4025H21.5877C20.0808 46.3889 19.7114 45.6008 19.4525 44.0088ZM19.4525 44.0088L16.6055 45.3663C15.0483 44.3253 14.9666 43.7318 16.6055 42.6513L19.4525 44.0088ZM19.4525 44.0088L20.8759 40.6152C19.8081 38.9184 18.9305 38.8529 18.0289 40.6152L19.4525 44.0088ZM19.4525 44.0088L22.6554 42.6513C23.9039 43.7117 23.6275 44.3059 22.6554 45.3663L19.4525 44.0088Z" stroke="black" stroke-width="1.15494"/>
<path d="M40.4093 47.4025H44.6799C42.9811 46.407 42.6801 45.6005 42.5446 44.0088L45.3916 45.3663C46.9488 44.3253 47.0305 43.7318 45.3916 42.6513L42.5446 44.0088L43.9682 40.6152C43.0665 38.8529 42.1889 38.9184 41.1212 40.6152L42.5446 44.0088L39.3417 42.6513C38.0932 43.7117 38.3695 44.3059 39.3417 45.3663L42.5446 44.0088C42.2857 45.6008 41.9163 46.3889 40.4093 47.4025Z" fill="black"/>
<path d="M42.5446 44.0088C42.6801 45.6005 42.9811 46.407 44.6799 47.4025H40.4093C41.9163 46.3889 42.2857 45.6008 42.5446 44.0088ZM42.5446 44.0088L45.3916 45.3663C46.9488 44.3253 47.0305 43.7318 45.3916 42.6513L42.5446 44.0088ZM42.5446 44.0088L41.1212 40.6152C42.1889 38.9184 43.0665 38.8529 43.9682 40.6152L42.5446 44.0088ZM42.5446 44.0088L39.3417 42.6513C38.0932 43.7117 38.3695 44.3059 39.3417 45.3663L42.5446 44.0088Z" stroke="black" stroke-width="1.15494"/>
<path d="M40.4093 60.1068L44.6799 60.1068C42.9811 61.1022 42.6801 61.9087 42.5446 63.5005L45.3916 62.143C46.9488 63.184 47.0305 63.7775 45.3916 64.858L42.5446 63.5005L43.9682 66.8941C43.0665 68.6564 42.1889 68.5909 41.1212 66.8941L42.5446 63.5005L39.3417 64.858C38.0932 63.7976 38.3695 63.2034 39.3417 62.143L42.5446 63.5005C42.2857 61.9085 41.9163 61.1204 40.4093 60.1068Z" fill="black"/>
<path d="M42.5446 63.5005C42.6801 61.9087 42.9811 61.1022 44.6799 60.1068L40.4093 60.1068C41.9163 61.1204 42.2857 61.9085 42.5446 63.5005ZM42.5446 63.5005L45.3916 62.143C46.9488 63.184 47.0305 63.7775 45.3916 64.858L42.5446 63.5005ZM42.5446 63.5005L41.1212 66.8941C42.1889 68.5909 43.0665 68.6564 43.9682 66.8941L42.5446 63.5005ZM42.5446 63.5005L39.3417 64.858C38.0932 63.7976 38.3695 63.2034 39.3417 62.143L42.5446 63.5005Z" stroke="black" stroke-width="1.15494"/>
<path d="M21.5877 60.1068L17.3172 60.1068C19.0159 61.1022 19.3169 61.9087 19.4525 63.5005L16.6055 62.143C15.0483 63.184 14.9666 63.7775 16.6055 64.858L19.4525 63.5005L18.0289 66.8941C18.9305 68.6564 19.8081 68.5909 20.8759 66.8941L19.4525 63.5005L22.6554 64.858C23.9039 63.7976 23.6276 63.2034 22.6554 62.143L19.4525 63.5005C19.7114 61.9085 20.0808 61.1204 21.5877 60.1068Z" fill="black"/>
<path d="M19.4525 63.5005C19.3169 61.9087 19.0159 61.1022 17.3172 60.1068L21.5877 60.1068C20.0808 61.1204 19.7114 61.9085 19.4525 63.5005ZM19.4525 63.5005L16.6055 62.143C15.0483 63.184 14.9666 63.7775 16.6055 64.858L19.4525 63.5005ZM19.4525 63.5005L20.8759 66.8941C19.8081 68.5909 18.9305 68.6564 18.0289 66.8941L19.4525 63.5005ZM19.4525 63.5005L22.6554 64.858C23.9039 63.7976 23.6276 63.2034 22.6554 62.143L19.4525 63.5005Z" stroke="black" stroke-width="1.15494"/>
<path d="M44.146 70.5012L49.0266 70.5012C47.0852 71.6388 46.7412 72.5605 46.5863 74.3797L49.84 72.8283C51.6196 74.018 51.713 74.6962 49.84 75.9311L46.5863 74.3797L48.2133 78.2581C47.1828 80.2722 46.1798 80.1973 44.9595 78.2581L46.5863 74.3797L42.9258 75.9311C41.4989 74.7193 41.8148 74.0401 42.9258 72.8283L46.5863 74.3797C46.2903 72.5602 45.8682 71.6595 44.146 70.5012Z" fill="black"/>
<path d="M46.5863 74.3797C46.7412 72.5605 47.0852 71.6388 49.0266 70.5012L44.146 70.5012C45.8682 71.6595 46.2903 72.5602 46.5863 74.3797ZM46.5863 74.3797L49.84 72.8283C51.6196 74.018 51.713 74.6962 49.84 75.9311L46.5863 74.3797ZM46.5863 74.3797L44.9595 78.2581C46.1798 80.1973 47.1828 80.2722 48.2133 78.2581L46.5863 74.3797ZM46.5863 74.3797L42.9258 75.9311C41.4989 74.7193 41.8148 74.0401 42.9258 72.8283L46.5863 74.3797Z" stroke="black" stroke-width="1.15494"/>
<path d="M8.91347 11.9217C8.91347 12.3766 8.85971 12.7819 8.75219 13.1376C8.64466 13.4891 8.48544 13.7868 8.27453 14.0308C8.06775 14.2707 7.81135 14.4527 7.50532 14.5767C7.19929 14.7049 6.8457 14.769 6.44456 14.769C5.99792 14.769 5.5947 14.6656 5.23491 14.4589C4.87512 14.2562 4.56702 13.9502 4.31062 13.5408C4.05835 13.1314 3.86398 12.6206 3.72751 12.0086C3.59104 11.3924 3.5228 10.6728 3.5228 9.84982C3.5228 9.02684 3.60965 8.3238 3.78334 7.74069C3.96117 7.15758 4.19483 6.682 4.48432 6.31393C4.77381 5.94173 5.10258 5.67086 5.47064 5.5013C5.84284 5.32761 6.22331 5.24076 6.61205 5.24076C7.00079 5.24076 7.32957 5.29866 7.59838 5.41445C7.87132 5.52611 8.09257 5.66879 8.26213 5.84248C8.43169 6.01617 8.55369 6.20848 8.62813 6.41939C8.7067 6.62617 8.74599 6.82467 8.74599 7.01491C8.74599 7.20514 8.71704 7.37263 8.65914 7.51737C8.60538 7.65798 8.53301 7.77584 8.44203 7.87096C8.35104 7.96194 8.24766 8.03225 8.13186 8.08187C8.0202 8.12737 7.90647 8.15011 7.79068 8.15011C7.67902 8.15011 7.56736 8.13564 7.4557 8.10669C7.34818 8.07774 7.25306 8.02811 7.17035 7.95781C7.08764 7.88337 7.0194 7.78825 6.96564 7.67246C6.91601 7.55253 6.8912 7.40571 6.8912 7.23202C6.89534 7.14518 6.90567 7.0604 6.92222 6.97769C6.93876 6.90738 6.96357 6.83087 6.99666 6.74816C7.03388 6.66132 7.08764 6.58067 7.15794 6.50624C7.09591 6.43593 7.02767 6.38217 6.95323 6.34495C6.87879 6.30773 6.80642 6.27878 6.73612 6.2581C6.65754 6.23743 6.57897 6.22295 6.50039 6.21468C6.33911 6.21468 6.17575 6.28498 6.01033 6.42559C5.84905 6.5662 5.70017 6.78332 5.56369 7.07694C5.42722 7.36643 5.31349 7.73656 5.22251 8.18733C5.13566 8.63397 5.09017 9.16745 5.08604 9.78778C5.30936 9.49416 5.56162 9.27498 5.84284 9.13023C6.12819 8.98135 6.41768 8.90691 6.7113 8.90691C6.99252 8.90691 7.26546 8.97101 7.53014 9.09922C7.79481 9.22742 8.02847 9.41765 8.23111 9.66992C8.43789 9.92219 8.60331 10.2365 8.72738 10.6128C8.85144 10.9892 8.91347 11.4255 8.91347 11.9217ZM6.48798 13.7517C6.79401 13.7517 7.0318 13.5925 7.20136 13.274C7.37505 12.9515 7.4619 12.5007 7.4619 11.9217C7.4619 11.6529 7.43502 11.4089 7.38126 11.1897C7.3275 10.9664 7.25306 10.7762 7.15794 10.619C7.06282 10.4577 6.95116 10.3337 6.82296 10.2468C6.69476 10.16 6.55622 10.1166 6.40734 10.1166C6.20883 10.1166 5.99999 10.1931 5.78081 10.3461C5.56576 10.4991 5.34657 10.7493 5.12326 11.0967C5.16461 11.5475 5.22664 11.9403 5.30935 12.2753C5.3962 12.6062 5.49959 12.8812 5.61952 13.1003C5.73945 13.3195 5.87179 13.4829 6.01653 13.5904C6.16541 13.6979 6.32256 13.7517 6.48798 13.7517Z" fill="black"/>
<path d="M51.9288 78.2633C51.9288 77.8084 51.9826 77.4031 52.0901 77.0475C52.1976 76.696 52.3568 76.3982 52.5678 76.1542C52.7745 75.9144 53.0309 75.7324 53.337 75.6083C53.643 75.4801 53.9966 75.416 54.3977 75.416C54.8444 75.416 55.2476 75.5194 55.6074 75.7262C55.9672 75.9288 56.2753 76.2349 56.5317 76.6443C56.7839 77.0537 56.9783 77.5644 57.1148 78.1765C57.2512 78.7927 57.3195 79.5123 57.3195 80.3352C57.3195 81.1582 57.2326 81.8613 57.0589 82.4444C56.8811 83.0275 56.6475 83.5031 56.358 83.8711C56.0685 84.2433 55.7397 84.5142 55.3716 84.6838C54.9994 84.8575 54.619 84.9443 54.2302 84.9443C53.8415 84.9443 53.5127 84.8864 53.2439 84.7706C52.971 84.6589 52.7497 84.5163 52.5802 84.3426C52.4106 84.1689 52.2886 83.9766 52.2142 83.7657C52.1356 83.5589 52.0963 83.3604 52.0963 83.1702C52.0963 82.9799 52.1252 82.8124 52.1831 82.6677C52.2369 82.5271 52.3093 82.4092 52.4003 82.3141C52.4912 82.2231 52.5946 82.1528 52.7104 82.1032C52.8221 82.0577 52.9358 82.0349 53.0516 82.0349C53.1633 82.0349 53.2749 82.0494 53.3866 82.0784C53.4941 82.1073 53.5892 82.1569 53.6719 82.2272C53.7546 82.3017 53.8229 82.3968 53.8766 82.5126C53.9263 82.6325 53.9511 82.7793 53.9511 82.953C53.9469 83.0399 53.9366 83.1247 53.9201 83.2074C53.9035 83.2777 53.8787 83.3542 53.8456 83.4369C53.8084 83.5237 53.7546 83.6044 53.6843 83.6788C53.7464 83.7491 53.8146 83.8029 53.8891 83.8401C53.9635 83.8773 54.0359 83.9063 54.1062 83.927C54.1847 83.9476 54.2633 83.9621 54.3419 83.9704C54.5032 83.9704 54.6665 83.9001 54.832 83.7595C54.9932 83.6189 55.1421 83.4017 55.2786 83.1081C55.4151 82.8186 55.5288 82.4485 55.6198 81.9977C55.7066 81.5511 55.7521 81.0176 55.7562 80.3973C55.5329 80.6909 55.2807 80.9101 54.9994 81.0548C54.7141 81.2037 54.4246 81.2781 54.131 81.2781C53.8498 81.2781 53.5768 81.214 53.3121 81.0858C53.0475 80.9576 52.8138 80.7674 52.6112 80.5151C52.4044 80.2629 52.239 79.9486 52.1149 79.5722C51.9908 79.1959 51.9288 78.7596 51.9288 78.2633ZM54.3543 76.4334C54.0483 76.4334 53.8105 76.5926 53.6409 76.911C53.4672 77.2336 53.3804 77.6844 53.3804 78.2633C53.3804 78.5321 53.4073 78.7761 53.461 78.9953C53.5148 79.2186 53.5892 79.4089 53.6843 79.566C53.7795 79.7273 53.8911 79.8514 54.0193 79.9382C54.1475 80.0251 54.2861 80.0685 54.4349 80.0685C54.6335 80.0685 54.8423 79.992 55.0615 79.839C55.2765 79.686 55.4957 79.4358 55.719 79.0884C55.6777 78.6376 55.6156 78.2447 55.5329 77.9097C55.4461 77.5789 55.3427 77.3039 55.2228 77.0847C55.1028 76.8655 54.9705 76.7022 54.8258 76.5946C54.6769 76.4871 54.5197 76.4334 54.3543 76.4334Z" fill="black"/>
</svg>

<svg width="61" height="91" fill="none" xmlns="http://www.w3.org/2000/svg"><rect x=".39" y=".05" width="60.06" height="90.09" rx="4.62" fill="#fff"/><mask id="a" style="mask-type:alpha" maskUnits="userSpaceOnUse" x="1" y="1" width="58" height="87"><path d="M11.28 2.36h42.24a4.04 4.04 0 0 1 4.04 4.04v64.16c0 1.24-1 2.25-2.25 2.25a3.4 3.4 0 0 0-3.35 2.81l-1.12 6.39c-.16.9.25 1.8 1.03 2.26.9.54.53 1.92-.52 1.94l-44.94.94a4.04 4.04 0 0 1-4.13-4.18l2.04-62.75a2.94 2.94 0 0 1 2.95-2.85 4.1 4.1 0 0 0 4.1-4.1V8.23c0-.96-.46-1.87-1.23-2.44a1.9 1.9 0 0 1 1.14-3.42Z" fill="#C4C4C4" stroke="#000" stroke-width="1.15"/></mask><g mask="url(#a)"><rect x="6.17" y="5.25" width="49.66" height="79.69" rx="4.04" stroke="#000" stroke-width="1.15"/></g><path d="M16.7 19.68h-4.88c1.94-1.13 2.28-2.06 2.44-3.87L11 17.36c-1.78-1.2-1.87-1.87 0-3.1l3.26 1.55-1.63-3.88c1.03-2.02 2.03-1.94 3.25 0l-1.62 3.88 3.66-1.56c1.42 1.22 1.1 1.9 0 3.1l-3.66-1.54c.3 1.81.71 2.72 2.44 3.87Z" fill="#000"/><path d="M14.26 15.8c-.16 1.82-.5 2.75-2.44 3.88h4.88c-1.73-1.15-2.15-2.06-2.44-3.87Zm0 0L11 17.37c-1.78-1.2-1.87-1.87 0-3.1l3.26 1.55Zm0 0 1.62-3.87c-1.22-1.94-2.22-2.02-3.25 0l1.63 3.88Zm0 0 3.66-1.55c1.42 1.22 1.1 1.9 0 3.1l-3.66-1.54Z" stroke="#000" stroke-width="1.15"/><path d="M21.59 30.08h-4.27c1.7-1 2-1.8 2.13-3.4l-2.84 1.36c-1.56-1.04-1.64-1.63 0-2.71l2.84 1.35-1.42-3.39c.9-1.76 1.78-1.7 2.85 0l-1.43 3.4 3.2-1.36c1.25 1.06.98 1.65 0 2.71l-3.2-1.36c.26 1.6.63 2.38 2.14 3.4Z" fill="#000"/><path d="M19.45 26.68c-.13 1.6-.43 2.4-2.13 3.4h4.27c-1.5-1.02-1.88-1.8-2.14-3.4Zm0 0-2.84 1.36c-1.56-1.04-1.64-1.63 0-2.71l2.84 1.35Zm0 0 1.43-3.39c-1.07-1.7-1.95-1.76-2.85 0l1.42 3.4Zm0 0 3.2-1.35c1.25 1.06.98 1.65 0 2.71l-3.2-1.36Z" stroke="#000" stroke-width="1.15"/><path d="M40.4 30.08h4.28c-1.7-1-2-1.8-2.14-3.4l2.85 1.36c1.56-1.04 1.64-1.63 0-2.71l-2.85 1.35 1.43-3.39c-.9-1.76-1.78-1.7-2.85 0l1.42 3.4-3.2-1.36c-1.25 1.06-.97 1.65 0 2.71l3.2-1.36c-.25 1.6-.62 2.38-2.13 3.4Z" fill="#000"/><path d="M42.54 26.68c.14 1.6.44 2.4 2.14 3.4h-4.27c1.5-1.02 1.88-1.8 2.13-3.4Zm0 0 2.85 1.36c1.56-1.04 1.64-1.63 0-2.71l-2.85 1.35Zm0 0-1.42-3.39c1.07-1.7 1.95-1.76 2.85 0l-1.43 3.4Zm0 0-3.2-1.35c-1.25 1.06-.97 1.65 0 2.71l3.2-1.36Z" stroke="#000" stroke-width="1.15"/><path d="M21.59 47.4h-4.27c1.7-1 2-1.8 2.13-3.4l-2.84 1.37c-1.56-1.04-1.64-1.64 0-2.72l2.84 1.36-1.42-3.4c.9-1.76 1.78-1.7 2.85 0l-1.43 3.4 3.2-1.36c1.25 1.06.98 1.66 0 2.72L19.46 44c.26 1.6.63 2.38 2.14 3.4Z" fill="#000"/><path d="M19.45 44c-.13 1.6-.43 2.4-2.13 3.4h4.27c-1.5-1.01-1.88-1.8-2.14-3.4Zm0 0-2.84 1.37c-1.56-1.04-1.64-1.64 0-2.72l2.84 1.36Zm0 0 1.43-3.38c-1.07-1.7-1.95-1.77-2.85 0L19.45 44Zm0 0 3.2-1.35c1.25 1.06.98 1.66 0 2.72L19.46 44Z" stroke="#000" stroke-width="1.15"/><path d="M40.4 47.4h4.28c-1.7-1-2-1.8-2.14-3.4l2.85 1.37c1.56-1.04 1.64-1.64 0-2.72l-2.85 1.36 1.43-3.4c-.9-1.76-1.78-1.7-2.85 0l1.42 3.4-3.2-1.36c-1.25 1.06-.97 1.66 0 2.72l3.2-1.36c-.25 1.6-.62 2.38-2.13 3.4Z" fill="#000"/><path d="M42.54 44c.14 1.6.44 2.4 2.14 3.4h-4.27c1.5-1.01 1.88-1.8 2.13-3.4Zm0 0 2.85 1.37c1.56-1.04 1.64-1.64 0-2.72l-2.85 1.36Zm0 0-1.42-3.38c1.07-1.7 1.95-1.77 2.85 0L42.54 44Zm0 0-3.2-1.35c-1.25 1.06-.97 1.66 0 2.72l3.2-1.36Z" stroke="#000" stroke-width="1.15"/><path d="M40.4 60.1h4.28c-1.7 1-2 1.8-2.14 3.4l2.85-1.36c1.56 1.04 1.64 1.64 0 2.72l-2.85-1.36 1.43 3.4c-.9 1.76-1.78 1.7-2.85 0l1.42-3.4-3.2 1.36c-1.25-1.06-.97-1.66 0-2.72l3.2 1.36c-.25-1.6-.62-2.38-2.13-3.4Z" fill="#000"/><path d="M42.54 63.5c.14-1.6.44-2.4 2.14-3.4h-4.27c1.5 1.02 1.88 1.8 2.13 3.4Zm0 0 2.85-1.36c1.56 1.04 1.64 1.64 0 2.72l-2.85-1.36Zm0 0-1.42 3.4c1.07 1.7 1.95 1.76 2.85 0l-1.43-3.4Zm0 0-3.2 1.36c-1.25-1.06-.97-1.66 0-2.72l3.2 1.36Z" stroke="#000" stroke-width="1.15"/><path d="M21.59 60.1h-4.27c1.7 1 2 1.8 2.13 3.4l-2.84-1.36c-1.56 1.04-1.64 1.64 0 2.72l2.84-1.36-1.42 3.4c.9 1.76 1.78 1.7 2.85 0l-1.43-3.4 3.2 1.36c1.25-1.06.98-1.66 0-2.72l-3.2 1.36c.26-1.6.63-2.38 2.14-3.4Z" fill="#000"/><path d="M19.45 63.5c-.13-1.6-.43-2.4-2.13-3.4h4.27c-1.5 1.02-1.88 1.8-2.14 3.4Zm0 0-2.84-1.36c-1.56 1.04-1.64 1.64 0 2.72l2.84-1.36Zm0 0 1.43 3.4c-1.07 1.7-1.95 1.76-2.85 0l1.42-3.4Zm0 0 3.2 1.36c1.25-1.06.98-1.66 0-2.72l-3.2 1.36Z" stroke="#000" stroke-width="1.15"/><path d="M44.15 70.5h4.88c-1.94 1.14-2.29 2.06-2.44 3.88l3.25-1.55c1.78 1.19 1.87 1.87 0 3.1l-3.25-1.55 1.62 3.88c-1.03 2.01-2.03 1.94-3.25 0l1.63-3.88-3.66 1.55c-1.43-1.21-1.12-1.89 0-3.1l3.66 1.55c-.3-1.82-.72-2.72-2.44-3.88Z" fill="#000"/><path d="M46.59 74.38c.15-1.82.5-2.74 2.44-3.88h-4.88c1.72 1.16 2.14 2.06 2.44 3.88Zm0 0 3.25-1.55c1.78 1.19 1.87 1.87 0 3.1l-3.25-1.55Zm0 0-1.63 3.88c1.22 1.94 2.22 2.01 3.25 0l-1.62-3.88Zm0 0-3.66 1.55c-1.43-1.21-1.12-1.89 0-3.1l3.66 1.55Z" stroke="#000" stroke-width="1.15"/><path d="M8.91 11.92c0 .46-.05.86-.16 1.22-.1.35-.26.65-.48.9-.2.23-.46.41-.76.54a2.73 2.73 0 0 1-2.28-.12c-.35-.2-.66-.51-.92-.92-.25-.4-.45-.92-.58-1.53a10.07 10.07 0 0 1 .05-4.27c.18-.58.41-1.06.7-1.43a2.67 2.67 0 0 1 3.12-.9c.27.12.5.26.66.43.17.18.3.37.37.58.08.2.12.4.12.6 0 .19-.03.35-.1.5-.04.14-.12.26-.2.35-.1.1-.2.16-.32.21a.9.9 0 0 1-.34.07c-.11 0-.22-.01-.33-.04a.73.73 0 0 1-.29-.15.87.87 0 0 1-.2-.29 1.15 1.15 0 0 1-.05-.7c.02-.06.04-.14.08-.22.03-.09.09-.17.16-.24a.68.68 0 0 0-.2-.17 1.32 1.32 0 0 0-.46-.13.76.76 0 0 0-.49.22c-.16.14-.31.35-.45.65-.13.29-.25.66-.34 1.1-.08.45-.13.99-.13 1.6.22-.29.47-.5.75-.65a1.86 1.86 0 0 1 2.4.54c.2.25.36.57.49.94.12.38.18.82.18 1.31ZM6.5 13.75c.3 0 .54-.16.71-.48.18-.32.26-.77.26-1.35 0-.27-.02-.51-.08-.73a2 2 0 0 0-.22-.57c-.1-.16-.2-.29-.34-.37a.73.73 0 0 0-.41-.13c-.2 0-.41.07-.63.23-.21.15-.43.4-.66.75.04.45.1.84.19 1.18.09.33.19.6.31.82.12.22.25.38.4.49.15.1.3.16.47.16ZM51.93 78.26c0-.45.05-.86.16-1.21.1-.35.27-.65.48-.9.2-.24.46-.42.77-.54a2.73 2.73 0 0 1 2.27.12c.36.2.67.5.92.91.25.41.45.92.58 1.54a10.08 10.08 0 0 1-.05 4.26 4.33 4.33 0 0 1-.7 1.43 2.67 2.67 0 0 1-3.12.9c-.27-.11-.49-.25-.66-.43a1.67 1.67 0 0 1-.48-1.17c0-.19.03-.36.08-.5.06-.14.13-.26.22-.36.1-.09.2-.16.31-.2a.9.9 0 0 1 .34-.08c.11 0 .22.02.34.05.1.03.2.08.28.15.08.07.15.17.2.28a1.15 1.15 0 0 1 .05.7l-.07.23a.82.82 0 0 1-.17.24c.07.07.13.12.2.16a1.32 1.32 0 0 0 .46.13c.16 0 .33-.07.5-.21.15-.14.3-.36.44-.65.14-.3.25-.66.34-1.11.09-.45.13-.98.14-1.6-.23.3-.48.51-.76.65a1.86 1.86 0 0 1-2.39-.53 2.9 2.9 0 0 1-.5-.95 4.18 4.18 0 0 1-.18-1.3Zm2.42-1.83c-.3 0-.54.16-.7.48-.18.32-.27.77-.27 1.35 0 .27.03.52.08.74a2 2 0 0 0 .22.57c.1.16.21.28.34.37.13.09.27.13.41.13.2 0 .41-.08.63-.23.22-.15.44-.4.66-.75-.04-.45-.1-.85-.19-1.18-.08-.33-.19-.6-.3-.83a1.49 1.49 0 0 0-.4-.49.8.8 0 0 0-.48-.16Z" fill="#000"/></svg>
